!!!COM: Marenzio, Luca
!!!CDT: 1553///-1599///
!!!OTL: Ergo ne vis abire
!!!OTL2: Deggio dunque partire
!!!ONM: No. 14
!!!SMS: Musica tolta da i madrigali di Claudio Monteverdi, e d'altri autori, e fatta spirituale
!!!PPR: A. Coppini, ed.
!!!PPP: Milan
!!!PDT: 1607
!!!URL: http://www.jpj.dk/coppini.htm
!!!AIN: contrafacta
**kern	**kern	**kern	**kern	**kern
*staff5	*staff4	*staff3	*staff2	*staff1
*Ivox	*Ivox	*Ivox	*Ivox	*Ivox
!basso	!tenore	!alto	!quinto	!canto
*clefF4	*clefGv2	*clefG2	*clefG2	*clefG2
*k[b-]	*k[b-]	*k[b-]	*k[b-]	*k[b-]
*M4/4	*M4/4	*M4/4	*M4/4	*M4/4
*MM120	*MM120	*MM120	*MM120	*MM120
=1-	=1-	=1-	=1-	=1-
1r	1r	2.d/	2r	2r
.	.	.	[2dd\	[2ff\
.	.	4e/	.	.
=2	=2	=2	=2	=2
1r	1r	2f/	4dd\]	4ff\]
.	.	.	4cc\	4ee\
.	.	4g/	4b-\	4dd\
.	.	4c/	8a/	8cc\
.	.	.	8g/	8b-\
=3	=3	=3	=3	=3
1r	1r	2d/	2f#/	2a/
.	.	2G/	2g/	2g/
=4	=4	=4	=4	=4
1r	1r	1e-	2r	2r
.	.	.	[2b-\	[2g/
=5	=5	=5	=5	=5
1r	1r	1d	2b-\]	2g/]
.	.	.	2a/	2f#/
=6	=6	=6	=6	=6
1r	2.d\	1r	2r	2r
.	.	.	[2ff\	[2dd\
.	4e\	.	.	.
=7	=7	=7	=7	=7
1r	2f\	1r	4ff\]	4dd\]
.	.	.	4ee\	4cc\
.	4g\	.	4dd\	4b-\
.	4c\	.	8cc\	8a/
.	.	.	8b-\	8g/
=8	=8	=8	=8	=8
1r	2d\	2r	2a/	2f#/
.	2G/	[2g/	2g/	4g/
.	.	.	.	[4b-\
=9	=9	=9	=9	=9
1r	1B-	4g/]	2r	4b-\]
.	.	8f/L	.	8a/L
.	.	8e/J	.	8g/J
.	.	4d/	[2dd\	4f/
.	.	4e/	.	4g/
=10	=10	=10	=10	=10
1r	1A	2f/	2dd\]	2a/
.	.	2e/	2cc#\	2a/
=11	=11	=11	=11	=11
1r	4r	4r	4r	4r
.	4d\	4f#/	4dd\	4a/
.	4d\	4f#/	4dd\	4a/
.	4G/	4g/	4dd\	4bn\
=12	=12	=12	=12	=12
1r	2c\	2g/	2ee\	4.cc\
.	.	.	.	8b-\
.	2d\	2r	2ff\	2a/
=13	=13	=13	=13	=13
1r	4e\	4r	4ee\	2r
.	4f\	4a/	4dd\	.
.	2e\	4g/	2cc#\	4r
.	.	4e/	.	4g/
=14	=14	=14	=14	=14
1r	1d	4f#/	1dd	4a/
.	.	2g/	.	4b-\
.	.	.	.	2a/
.	.	4f#/	.	.
=15	=15	=15	=15	=15
1r	4r	2g/	4r	2g/
.	4G/	.	4b-\	.
.	4A/	4r	4a/	4r
.	4B-\	4d/	4g/	4dd\
=16	=16	=16	=16	=16
1r	1A	4e/	1a	4cc#\
.	.	4f/	.	2dd\
.	.	2e/	.	.
.	.	.	.	4cc#\
=17	=17	=17	=17	=17
1r	1d	1f#	1a	1dd
=18	=18	=18	=18	=18
[1G	[1d	[1g	[1bn	1r
=19	=19	=19	=19	=19
1G]	1d]	1g]	1b]	1gg
=20	=20	=20	=20	=20
1C	1c	1g	1cc	1ee
=21	=21	=21	=21	=21
2F\	2c\	2f/	4r	1r
.	.	.	4a/	.
4G\	4B-\	4d/	4g/	.
4E-\	4G/	4c/	4g/	.
=22	=22	=22	=22	=22
2D\	2A/	2d/	2f#/	1r
2D\	2A/	2d/	2f#/	.
=23	=23	=23	=23	=23
[1G	[1Bn	[1d	[1g	1r
=24	=24	=24	=24	=24
1G]	1Bn]	1d]	1g]	1gg
=25	=25	=25	=25	=25
1C	1c	1e	1g	1ee
=26	=26	=26	=26	=26
2c\	4r	1r	4r	4r
.	4g\	.	4cc\	4ee\
4d\	4f\	.	4a/	4dd\
4B-\	4d\	.	4g/	4dd\
=27	=27	=27	=27	=27
2A\	2e\	1r	2a/	2cc#\
4A\	4e\	.	4a/	4cc#\
[4B-\	[4d\	.	[4f/	[4dd\
=28	=28	=28	=28	=28
4B-\]	4d\]	1r	4f/]	4dd\]
4G\	4g\	.	4b-\	4dd\
2A\	2e\	.	2a/	2cc#\
=29	=29	=29	=29	=29
1D	1d	1r	1a	1dd
=30	=30	=30	=30	=30
1r	1G	2r	2.b-\	2r
.	.	[2g/	.	[2dd\
.	.	.	4a/	.
=31	=31	=31	=31	=31
1r	2B-\	2g/]	2g/	2dd\]
.	2A/	[2f/	2a/	2ff\
=32	=32	=32	=32	=32
1r	2Bn\	2f/]	1g	2dd\
.	2c\	2e/	.	[2cc\
=33	=33	=33	=33	=33
1r	[1A	2f#/	2a/	2cc\]
.	.	[2g/	2b-\	2b-\
=34	=34	=34	=34	=34
1r	1A]	2g/]	[1cc	1a
.	.	2f#/	.	.
=35	=35	=35	=35	=35
1r	1G	1g	2cc\]	1dd
.	.	.	2bn\	.
=36	=36	=36	=36	=36
[1C	[1c	[1g	1r	[1ee
=37	=37	=37	=37	=37
1C]	1c]	1g]	[1cc	1ee]
=38	=38	=38	=38	=38
2r	2r	2r	1cc]	2r
[2F\	[2c\	[2a/	.	[2ff\
=39	=39	=39	=39	=39
2F\]	2c\]	2a/]	1r	2ff\]
4C/	4e\	4g/	.	4ee\
4D\	4a\	4f/	.	4dd\
=40	=40	=40	=40	=40
4A\	4a\	4e/	1r	4cc#\
4B-\	4f\	4d/	.	4dd\
2A\	2a\	2c#/	.	2ee\
=41	=41	=41	=41	=41
2A\	1a	2c#/	2r	2ee\
4A\	.	4c#/	2a/	4ee\
[4A\	.	[4c#/	.	[4a/
=42	=42	=42	=42	=42
4A\]	1r	4c#/]	4e/	4a/]
4d\	.	4d/	4f/	4a/
2c\	.	2e/	2g/	2cc\
=43	=43	=43	=43	=43
2c\	4r	2e/	2g/	2cc\
.	4e\	.	.	.
4.F\	4.f\	2r	4.a/	4.cc\
8E\	8g\	.	8g/	8cc\
=44	=44	=44	=44	=44
4F\	4f\	1r	4a/	4cc\
4G\	4d\	.	4g/	4b-\
2A\	2c#\	.	2e/	2a/
=45	=45	=45	=45	=45
2D\	2d\	2r	2f#/	2a/
[2G\	[2B-\	[2d/	[2g/	[2b-\
=46	=46	=46	=46	=46
2G\]	2B-\]	2d/]	2g/]	2b-\]
4.F\	4.c\	4.f/	4.cc\	4.a/
8E\	8c\	8g/	8cc\	8g/
=47	=47	=47	=47	=47
4F\	4A/	4a/	4cc\	4f/
4G\	4d\	4g/	4b-\	4d/
2D\	2d\	2f#/	2a/	2dd\
=48	=48	=48	=48	=48
1G	1d	1g	1bn	1dd
=49	=49	=49	=49	=49
[1C	[1c	[1g	1r	[1ee
=50	=50	=50	=50	=50
1C]	1c]	1g]	[1cc	1ee]
=51	=51	=51	=51	=51
2r	2r	2r	1cc]	2r
[2F\	[2c\	[2a/	.	[2ff\
=52	=52	=52	=52	=52
2F\]	2c\]	2a/]	1r	2ff\]
4C/	4e\	4g/	.	4ee\
4D\	4a\	4f/	.	4dd\
=53	=53	=53	=53	=53
4A\	4a\	4e/	1r	4cc#\
4B-\	4f\	4d/	.	4dd\
2A\	2a\	2c#/	.	2ee\
=54	=54	=54	=54	=54
2A\	1a	2c#/	2r	2ee\
4A\	.	4c#/	2a/	4ee\
[4A\	.	[4c#/	.	[4a/
=55	=55	=55	=55	=55
4A\]	1r	4c#/]	4e/	4a/]
4d\	.	4d/	4f/	4a/
2c\	.	2e/	2g/	2cc\
=56	=56	=56	=56	=56
2c\	4r	2e/	2g/	2cc\
.	4e\	.	.	.
4.F\	4.f\	2r	4.a/	4.cc\
8E\	8g\	.	8g/	8cc\
=57	=57	=57	=57	=57
4F\	4f\	1r	4a/	4cc\
4G\	4d\	.	4g/	4b-\
2A\	2c#\	.	2e/	2a/
=58	=58	=58	=58	=58
2D\	1d	2r	2f#/	2a/
[2G\	.	[2d/	2g/	[2b-\
=59	=59	=59	=59	=59
2G\]	1r	2d/]	1r	2b-\]
4.F\	.	4.f/	.	4.a/
8E\	.	8g/	.	8g/
=60	=60	=60	=60	=60
2F\	2r	2f/	2r	2a/
2G\	[2B-\	2d/	[2g/	2dd\
=61	=61	=61	=61	=61
[1D	2B-\]	[1d	2g/]	[1dd
.	4.A/	.	4.f/	.
.	8G/	.	8e/	.
=62	=62	=62	=62	=62
1D]	4A/	1d]	4f#/	1dd]
.	4B-\	.	4g/	.
.	2A/	.	2f#/	.
=63	=63	=63	=63	=63
1G;	1G;	1d;	1g;	1bn;
==	==	==	==	==
*-	*-	*-	*-	*-
!!!ENC: Craig Stuart Sapp
!!!END: 2004/12/10/
